X:665
T:Reconciliation #3, The
C:Joe Buchanan's Scottish Tome - Page 204.3
I:204 3
Z:Carl Allison
R:Reel
L:1/8
M:4/4
K:A
e2 | "A"A2 (cA) eAfA | "A"eAfA e(cBc) | "A"A2 (cA) eAfA | "Bm"e(cBc) "D"A(FEF) | 
"A"A2 (cA) eAfA | "A"eAfA e(cBc) | "A"ABAF Ecd(f | "E7"e)cBc "A"A2 :| 
cB | "A"A2 ce a2 af | "A"effd cdcB | "A"A2 ce "F#m"a2 ag | "B7"fbba "E7"gbeg | 
"A"agae faec | "A"dBcA BAFG | "A"ABAF "D"Ecdf | "E7"ecAc "A"A2 :|

